suite-common/icons/assets/icons/noConnection.svg

<svg xmlns="http://www.w3.org/2000/svg" xml:space="preserve" fill="none" viewBox="0 0 40 40">
  <path fill="#000" fill-rule="evenodd" d="M18.567 8.041c-3.193.26-5.741.905-8.495 2.152-2.171.982-4.561 2.602-6.247 4.235-.602.582-.626.617-.626.895.001.241.04.329.228.517.183.184.278.227.498.227.251 0 .33-.053 1.024-.677 2.112-1.902 3.989-3.118 6.417-4.155 3.106-1.327 6.274-1.866 9.923-1.688 1.405.069 1.461.067 1.633-.061.256-.19.369-.565.253-.84-.149-.351-.31-.445-.883-.513-.584-.07-3.205-.134-3.725-.092m8.666.019c-.206.091-.422.356-.439.54-.04.442-.02.468 1.705 2.198l1.7 1.704-1.667 1.666c-1.696 1.694-1.826 1.86-1.751 2.251.018.093.121.254.23.358.156.15.259.19.493.19h.295l1.718-1.717 1.717-1.717L32.9 15.2c1.115 1.116 1.738 1.691 1.883 1.739.47.155.95-.217.95-.736 0-.212-.133-.365-1.7-1.935-.935-.938-1.7-1.733-1.7-1.768s.765-.83 1.7-1.768c1.567-1.57 1.7-1.723 1.7-1.935 0-.519-.48-.891-.95-.736-.145.048-.768.623-1.883 1.739l-1.666 1.667-1.703-1.702c-1.457-1.457-1.736-1.706-1.933-1.732a.85.85 0 0 0-.365.027m-9.295 7.578c-3.276.42-6.575 1.963-8.884 4.154-.536.509-.554.536-.554.829 0 .244.038.343.193.505.369.385.719.336 1.271-.181a14.69 14.69 0 0 1 11.782-3.841c.949.116 1.09.089 1.345-.254.247-.335.109-.911-.252-1.048-.664-.252-3.48-.347-4.901-.164m.862 7.464c-1.672.234-3.419 1.05-4.583 2.143-.369.346-.417.42-.417.643 0 .493.281.779.764.779.175 0 .326-.084.68-.377 1.292-1.066 2.553-1.611 4.06-1.754 2.009-.19 3.792.384 5.452 1.754.354.293.505.377.68.377.483 0 .764-.286.764-.779 0-.223-.048-.297-.417-.643a9 9 0 0 0-.956-.751 8.67 8.67 0 0 0-6.027-1.392m.848 6.663c-1.441.371-1.534 2.453-.13 2.931.423.144.725.129 1.12-.055 1.126-.524 1.202-2.121.129-2.71-.416-.227-.711-.271-1.119-.166"/>
</svg>

<svg xmlns="http://www.w3.org/2000/svg" xml:space="preserve" fill="none" viewBox="0 0 40 40"><path d="M18.567 8.041 C 15.374 8.301,12.826 8.946,10.072 10.193 C 7.901 11.175,5.511 12.795,3.825 14.428 C 3.223 15.010,3.199 15.045,3.199 15.323 C 3.200 15.564,3.239 15.652,3.427 15.840 C 3.610 16.024,3.705 16.067,3.925 16.067 C 4.176 16.067,4.255 16.014,4.949 15.390 C 7.061 13.488,8.938 12.272,11.366 11.235 C 14.472 9.908,17.640 9.369,21.289 9.547 C 22.694 9.616,22.750 9.614,22.922 9.486 C 23.178 9.296,23.291 8.921,23.175 8.646 C 23.026 8.295,22.865 8.201,22.292 8.133 C 21.708 8.063,19.087 7.999,18.567 8.041 M27.233 8.060 C 27.027 8.151,26.811 8.416,26.794 8.600 C 26.754 9.042,26.774 9.068,28.499 10.798 L 30.199 12.502 28.532 14.168 C 26.836 15.862,26.706 16.028,26.781 16.419 C 26.799 16.512,26.902 16.673,27.011 16.777 C 27.167 16.927,27.270 16.967,27.504 16.967 L 27.799 16.967 29.517 15.250 L 31.234 13.533 32.900 15.200 C 34.015 16.316,34.638 16.891,34.783 16.939 C 35.253 17.094,35.733 16.722,35.733 16.203 C 35.733 15.991,35.600 15.838,34.033 14.268 C 33.098 13.330,32.333 12.535,32.333 12.500 C 32.333 12.465,33.098 11.670,34.033 10.732 C 35.600 9.162,35.733 9.009,35.733 8.797 C 35.733 8.278,35.253 7.906,34.783 8.061 C 34.638 8.109,34.015 8.684,32.900 9.800 L 31.234 11.467 29.531 9.765 C 28.074 8.308,27.795 8.059,27.598 8.033 C 27.471 8.016,27.307 8.028,27.233 8.060 M17.938 15.638 C 14.662 16.058,11.363 17.601,9.054 19.792 C 8.518 20.301,8.500 20.328,8.500 20.621 C 8.500 20.865,8.538 20.964,8.693 21.126 C 9.062 21.511,9.412 21.462,9.964 20.945 C 13.113 17.996,17.457 16.580,21.746 17.104 C 22.695 17.220,22.836 17.193,23.091 16.850 C 23.338 16.515,23.200 15.939,22.839 15.802 C 22.175 15.550,19.359 15.455,17.938 15.638 M18.800 23.102 C 17.128 23.336,15.381 24.152,14.217 25.245 C 13.848 25.591,13.800 25.665,13.800 25.888 C 13.800 26.381,14.081 26.667,14.564 26.667 C 14.739 26.667,14.890 26.583,15.244 26.290 C 16.536 25.224,17.797 24.679,19.304 24.536 C 21.313 24.346,23.096 24.920,24.756 26.290 C 25.110 26.583,25.261 26.667,25.436 26.667 C 25.919 26.667,26.200 26.381,26.200 25.888 C 26.200 25.665,26.152 25.591,25.783 25.245 C 25.554 25.030,25.124 24.692,24.827 24.494 C 23.033 23.299,20.907 22.808,18.800 23.102 M19.648 29.765 C 18.207 30.136,18.114 32.218,19.518 32.696 C 19.941 32.840,20.243 32.825,20.638 32.641 C 21.764 32.117,21.840 30.520,20.767 29.931 C 20.351 29.704,20.056 29.660,19.648 29.765 " stroke="none" fill-rule="evenodd" fill="black"></path></svg>
